X:30
T:Parnell's March
R:march
Z:id:hn-march-30
M:6/8
L:1/8
Q:3/8=110
K:G
d2c | BGD BGD | d3 d2c | BGD BGD | ded d2c |
BcB GBd | edc BAG | ABA ded | ~A3 d2c |
BGD BGD | ded d2B | c2B c2e | ~g3 gfe |
d2B GAB | c2A F2G | ~A3 AGF | G3 :|
|: g2f | e3 c2G | c2e gfe | ~d3 ded | B3 B2c | 
d3 d^cd | ed=c BAG | ABA ded | A2d d2c | 
BGD BGD | ded dcB | c2B c2e | ~g3 gfe | 
d2B GAB | c2A F2G | ABA AGF | G3 :| 

